assets/icons/traton/print.svg

<svg xmlns="http://www.w3.org/2000/svg" width="32" height="32" viewBox="0 0 32 32" fill="none">
<path fill-rule="evenodd" clip-rule="evenodd" d="M28.0001 8.99902H25.0001V2.99902H7.00012V8.99902H4.00012L2.00012 12.929V22.999H7.00012V28.999H25.0001V22.999H30.0001V12.929L28.0001 8.99902ZM9.00012 4.99902H23.0001V8.99902H9.00012V4.99902ZM23.0001 26.999H9.00012V17.999H23.0001V22.999V26.999ZM28.0001 20.999H25.0001V15.999H7.00012V20.999H4.00012V13.409L5.23012 10.999H26.7701L28.0001 13.409V20.999Z" fill="#001D21" />
</svg>

<svg viewBox="0 0 32 32" fill="none" xmlns="http://www.w3.org/2000/svg"><path fill-rule="evenodd" clip-rule="evenodd" d="M28 9h-3V3H7v6H4l-2 3.93V23h5v6h18v-6h5V12.93L28 9ZM9 5h14v4H9V5Zm14 22H9v-9h14v9Zm5-6h-3v-5H7v5H4v-7.59L5.23 11h21.54L28 13.41V21Z" fill="#001D21"/></svg>
